svgs/duotone/square-x.svg

<svg xmlns="http://www.w3.org/2000/svg" viewBox="0 0 448 512"><!--! Font Awesome Pro 6.0.0-alpha3 by @fontawesome - https://fontawesome.com License - https://fontawesome.com/license (Commercial License) --><defs><style>.fa-secondary{opacity:.4}</style></defs><path class="fa-primary" d="M327.5 133.7c-10.11-8.578-25.28-7.297-33.83 2.828L224 218.8L154.3 136.5C145.8 126.4 130.6 125.1 120.5 133.7C110.4 142.2 109.1 157.4 117.7 167.5L192.6 256l-74.88 88.5c-8.562 10.11-7.297 25.27 2.828 33.83C125 382.1 130.5 384 135.1 384c6.812 0 13.59-2.891 18.34-8.5L224 293.2l69.67 82.34C298.4 381.1 305.2 384 312 384c5.469 0 10.98-1.859 15.48-5.672c10.12-8.562 11.39-23.72 2.828-33.83L255.4 256l74.88-88.5C338.9 157.4 337.6 142.2 327.5 133.7z"/><path class="fa-secondary" d="M384 32H64C28.65 32 0 60.65 0 96v320c0 35.35 28.65 64 64 64h320c35.35 0 64-28.65 64-64V96C448 60.65 419.3 32 384 32zM330.3 344.5c8.562 10.11 7.297 25.27-2.828 33.83C323 382.1 317.5 384 312 384c-6.812 0-13.59-2.891-18.34-8.5L224 293.2L154.3 375.5C149.6 381.1 142.8 384 135.1 384C130.5 384 125 382.1 120.5 378.3c-10.12-8.562-11.39-23.72-2.828-33.83L192.6 256L117.7 167.5C109.1 157.4 110.4 142.2 120.5 133.7C130.6 125.1 145.8 126.4 154.3 136.5L224 218.8l69.67-82.34c8.547-10.12 23.72-11.41 33.83-2.828c10.12 8.562 11.39 23.72 2.828 33.83L255.4 256L330.3 344.5z"/></svg>

<svg xmlns="http://www.w3.org/2000/svg" viewBox="0 0 448 512"><!-- Font Awesome Pro 6.0.0-alpha2 by @fontawesome - https://fontawesome.com License - https://fontawesome.com/license (Commercial License) --><defs><style>.fa-secondary{opacity:.4}</style></defs><path d="M384 32H64C28.654 32 0 60.654 0 96V416C0 451.346 28.654 480 64 480H384C419.348 480 448 451.346 448 416V96C448 60.654 419.348 32 384 32ZM330.328 344.5C338.891 354.609 337.625 369.766 327.5 378.328C323 382.141 317.484 384 312.016 384C305.203 384 298.422 381.109 293.672 375.5L224 293.16L154.328 375.5C149.578 381.109 142.797 384 135.984 384C130.516 384 125 382.141 120.5 378.328C110.375 369.766 109.109 354.609 117.672 344.5L192.557 256L117.672 167.5C109.109 157.391 110.375 142.234 120.5 133.672C130.609 125.141 145.781 126.406 154.328 136.5L224 218.84L293.672 136.5C302.219 126.375 317.391 125.094 327.5 133.672C337.625 142.234 338.891 157.391 330.328 167.5L255.443 256L330.328 344.5Z" class="fa-secondary"/><path d="M327.506 133.672C317.396 125.094 302.225 126.375 293.678 136.5L224.006 218.84L154.334 136.5C145.787 126.406 130.615 125.141 120.506 133.672C110.381 142.234 109.115 157.391 117.678 167.5L192.562 256L117.678 344.5C109.115 354.609 110.381 369.766 120.506 378.328C125.006 382.141 130.521 384 135.99 384C142.803 384 149.584 381.109 154.334 375.5L224.006 293.16L293.678 375.5C298.428 381.109 305.209 384 312.021 384C317.49 384 323.006 382.141 327.506 378.328C337.631 369.766 338.896 354.609 330.334 344.5L255.449 256L330.334 167.5C338.896 157.391 337.631 142.234 327.506 133.672Z" class="fa-primary"/></svg>
